beta/v2.0.12/images/about.svg

<svg xmlns="http://www.w3.org/2000/svg" width="76" height="76" xml:space="preserve">﻿
  ﻿<path fill="#000000" fill-opacity="1" stroke-width="0.2" stroke-linejoin="round" d="M 38,19C 48.4934,19 57,27.5066 57,38C 57,48.4934 48.4934,57 38,57C 27.5066,57 19,48.4934 19,38C 19,27.5066 27.5066,19 38,19 Z M 33.25,33.25L 33.25,36.4167L 36.4166,36.4167L 36.4166,47.5L 33.25,47.5L 33.25,50.6667L 44.3333,50.6667L 44.3333,47.5L 41.1666,47.5L 41.1666,36.4167L 41.1666,33.25L 33.25,33.25 Z M 38.7917,25.3333C 37.48,25.3333 36.4167,26.3967 36.4167,27.7083C 36.4167,29.02 37.48,30.0833 38.7917,30.0833C 40.1033,30.0833 41.1667,29.02 41.1667,27.7083C 41.1667,26.3967 40.1033,25.3333 38.7917,25.3333 Z "></path></svg>

<svg xmlns="http://www.w3.org/2000/svg" width="76" height="76"><path d="M38 19c10.493 0 19 8.507 19 19s-8.507 19-19 19-19-8.507-19-19 8.507-19 19-19zm-4.75 14.25v3.167h3.167V47.5H33.25v3.167h11.083V47.5h-3.166V33.25H33.25zm5.542-7.917a2.375 2.375 0 1 0 0 4.75 2.375 2.375 0 0 0 0-4.75z"/></svg>
